X:1
T:Das Ist Meine Freude, 76.76.776
T:Das Ist Meine Freude, 76.76.776
T:Johann Anastasius Freylinghausen (1670-1739)
T:Public Domain Courtesy of the Cyber Hymnal™
C:Johann Anastasius Freylinghausen (1670-1739)
Z:Public Domain
Z:Courtesy of the Cyber Hymnal™
%%score ( 1 2 ) ( 3 4 )
L:1/8
Q:1/4=115
M:4/4
K:F
V:1 treble 
V:2 treble 
V:3 bass 
V:4 bass 
V:1
 [CF]2 [Cc]2 [CA]2 [CF]2 | [B,D]2 [B,E]2 [CF]4 | [CA]2 [CG]2 [FA]2 [Ad]2 | =B4 [Ec]4 | %4
 G2 (cG) [CA]2 [CG]2 | [DF]2 [DG]2 [CE]4 | [CG]2 [=B,G]2 [CG]2 (FG) | %7
 ([CE]2 [=B,D]2) !fermata!C4 x | [EG]2 [^FA]2 [GB]2 (cd) | [DB]2 A2 [B,G]4 | %10
 [DF]2 [CG]2 [CA]2 [CG]2 | [FA]2 [D=B]2 !fermata![Ec]4 | [FA]2 (GA) [FB]2 (AG) | %13
 ([FA]2 [EG]2) F4 |] %14
V:2
 x8 | x8 | x8 | (G2 F2) x4 | (ED) C2 x4 | x8 | x6 C2 | x4 C4 x | x6 D2 | x2 (DC) x4 | x8 | x8 | %12
 x2 C2 x F2 x | x4 F4 |] %14
V:3
 [F,A,]2 [E,G,]2 F,2 [A,,F,]2 | [B,,F,]2 [G,,G,]2 [F,,A,]4 | F,2 [E,C]2 [F,C]2 [D,F]2 | %3
 [G,D]4 [C,C]4 | C2 G,2 F,2 [E,G,]2 | [D,A,]2 [=B,,G,]2 [C,G,]4 | [C,E,]2 [D,F,]2 [E,G,]2 [F,A,]2 | %7
 G,3 (z F,) !fermata![C,E,]4 | [C,C]2 C2 [G,,B,]2 [B,,G,]2 | [D,G,]2 [D,^F,]2 [G,,G,]4 | %10
 [D,A,]2 [E,C]2 [F,C]2 [E,C]2 | [D,A,]2 G,2 !fermata![C,G,]4 | F,2 [_E,C]2 [D,B,]2 ([C,C][B,,D]) | %13
 (C3 B,) [F,,F,A,]4 |] %14
V:4
 x4 F,2 x2 | x8 | F,2 x6 | x8 | (C,D,) (E,C,) F,2 x2 | x8 | x8 | G,2 G,,2 x5 | x2 (B,,A,,) x4 | %9
 x8 | x8 | x2 G,2 x4 | F,2 x6 | C,4 x4 |] %14

